X: 6820
T: Charlie Hardie
R: reel
M: 4/4
K: Emajor
BeGc BeGe|cfAf cfAf|egBg egBg|gbaf geec|BeGc BeGe|
cfAf cfAf|1 egBg egBg|gbaf geec:|2 eg Bg ef ge|abc'e e'ee'a||
|:gebe gbeg|fBB/B/B defa|g/f/ebe gbe2|abc'e e'ee'a|
gebe gbeg|fBB/B/B defa|gbag fedc|1 BAGF Eeef:|2 BAGF Eeec||

